**kern	**silbe	**harmony	**phrase	**leadinstrument	**rhyme	**timestamp	**harte
*ICvox	*	*M4/4	*	*	*	*	*M4/4
*VRlead	*	*	*	*	*	*	*
*Hstimme	*	*	*	*	*	*	*
*D:	*	*D:	*	*	*	*	*D:
*M4/4	*	*	*	*	*	*	*
*clefF4	*	*	*	*	*	*	*
r;	.	1r;	.	r	.	0	N.C.
=1	=1	=1	=1	=1	=1	=1	=1
*>Letter>A	*>Letter>A	*>Letter>A	*>Letter>A	*>Letter>A	*>Letter>A	*>Letter>A	*>Letter>A
*>Label>Intro	*>Label>Intro	*>Label>Intro	*>Label>Intro	*>Label>Intro	*>Label>Intro	*>Label>Intro	*>Label>Intro
1r	.	1DM	newline	synthesizer	.	0.041	D:maj
=2	=2	=2	=2	=2	=2	=2	=2
1r	.	1DM	.	synthesizer	.	2.22	D:maj
=3	=3	=3	=3	=3	=3	=3	=3
1r	.	1DM	.	synthesizer	.	4.4	D:maj
=4	=4	=4	=4	=4	=4	=4	=4
1r	.	1DM	.	synthesizer	.	6.58	D:maj
=5	=5	=5	=5	=5	=5	=5	=5
1r	.	1DM	newline	synthesizer	.	8.759	D:maj
=6	=6	=6	=6	=6	=6	=6	=6
1r	.	1AM	.	synthesizer	.	10.943	A:sus4(b7)
=7	=7	=7	=7	=7	=7	=7	=7
1r	.	1Bmm	.	synthesizer	.	13.126	B:min7
=8	=8	=8	=8	=8	=8	=8	=8
1r	.	1GMM	.	synthesizer	.	15.31	G:maj9
=9	=9	=9	=9	=9	=9	=9	=9
1r	.	1DM	newline	synthesizer	.	17.493	D:maj
=10	=10	=10	=10	=10	=10	=10	=10
1r	.	1AM	.	synthesizer	.	19.671	A:sus4(b7)
=11	=11	=11	=11	=11	=11	=11	=11
1r	.	1Bmm	.	synthesizer	.	21.848	B:min7
=12	=12	=12	=12	=12	=12	=12	=12
1r	.	1GMM	.	synthesizer	.	24.026	G:maj9
=13	=13	=13	=13	=13	=13	=13	=13
*>Letter>B	*>Letter>B	*>Letter>B	*>Letter>B	*>Letter>B	*>Letter>B	*>Letter>B	*>Letter>B
*>Label>Verse	*>Label>Verse	*>Label>Verse	*>Label>Verse	*>Label>Verse	*>Label>Verse	*>Label>Verse	*>Label>Verse
2r	.	1DM	newline	voice	.	26.203	D:maj
8r	.	.	.	.	.	.	.
8D	See	.	.	.	.	.	.
8E	the	.	.	.	.	.	.
[8F#	stone	.	.	.	.	.	.
=14	=14	=14	=14	=14	=14	=14	=14
4F#]	_	1AM	.	voice	.	28.398	A:sus4(b7)
4E	set	.	.	.	.	.	.
8D	in	.	.	.	.	.	.
4E	your	.	.	.	.	.	.
8E	eyes	.	.	.	A	.	.
=15	=15	=15	=15	=15	=15	=15	=15
2F#	_	1Bmm	.	voice	.	30.592	B:min7
8r	.	.	.	.	.	.	.
8F#	See	.	.	.	.	.	.
8G	the	.	.	.	.	.	.
[8F#	thorn	.	.	.	.	.	.
=16	=16	=16	=16	=16	=16	=16	=16
4F#]	_	1GMM	.	voice	.	32.787	G:maj9
4E	twist	.	.	.	.	.	.
8D	in	.	.	.	.	.	.
4E	your	.	.	.	.	.	.
[8D	side	.	.	.	A	.	.
=17	=17	=17	=17	=17	=17	=17	=17
4D]	_	1DM	newline	voice	.	34.982	D:maj
4r	.	.	.	.	.	.	.
8r	.	.	.	.	.	.	.
4D	I'll	.	.	.	.	.	.
[8A	wait	.	.	.	B	.	.
=18	=18	=18	=18	=18	=18	=18	=18
2A]	_	1AM	.	voice	.	37.171	A:sus4(b7)
4r	.	.	.	.	.	.	.
8AA	for	.	.	.	.	.	.
[8BB	you	.	.	.	.	.	.
=19	=19	=19	=19	=19	=19	=19	=19
2BB]	_	1Bmm	.	voice	.	39.36	B:min7
2r	.	.	.	.	.	.	.
=20	=20	=20	=20	=20	=20	=20	=20
1r	.	1GMM	.	voice	.	41.549	G:maj9
=21	=21	=21	=21	=21	=21	=21	=21
2r	.	1DM	newline	voice	.	43.737	D:maj
8r	.	.	.	.	.	.	.
8F#	Slight	.	.	.	.	.	.
8F#	of	.	.	.	.	.	.
[8F#	hand	.	.	.	.	.	.
=22	=22	=22	=22	=22	=22	=22	=22
4F#]	_	1AM	.	voice	.	45.913	A:sus4(b7)
4E	and	.	.	.	.	.	.
8D	twist	.	.	.	.	.	.
4E	of	.	.	.	.	.	.
[8F#	fate	.	.	.	B	.	.
=23	=23	=23	=23	=23	=23	=23	=23
4F#]	_	1Bmm	.	voice	.	48.09	B:min7
8r	.	.	.	.	.	.	.
16AA	On	.	.	.	.	.	.
16AA	a	.	.	.	.	.	.
8F#	bed	.	.	.	.	.	.
4G	of	.	.	.	.	.	.
[8F#	nails	.	.	.	.	.	.
=24	=24	=24	=24	=24	=24	=24	=24
4F#]	_	1GMM	.	voice	.	50.266	G:maj9
4E	she	.	.	.	.	.	.
8D	makes	.	.	.	.	.	.
4E	me	.	.	.	.	.	.
[8D	wait	.	.	.	B	.	.
=25	=25	=25	=25	=25	=25	=25	=25
4D]	_	1DM	newline	voice	.	52.442	D:maj
4r	.	.	.	.	.	.	.
8r	.	.	.	.	.	.	.
8D	And	.	.	.	.	.	.
8D	I	.	.	.	.	.	.
[8A	wait	.	.	.	B	.	.
=26	=26	=26	=26	=26	=26	=26	=26
2A]	_	1AM	.	voice	.	54.615	A:sus4(b7)
4r	.	.	.	.	.	.	.
8AA	with-	.	.	.	.	.	.
[8BB	-out	.	.	.	.	.	.
=27	=27	=27	=27	=27	=27	=27	=27
8BB]	_	1Bmm	.	voice	.	56.789	B:min7
[4.F#	you	.	.	.	.	.	.
4F#]	_	.	.	.	.	.	.
4r	.	.	.	.	.	.	.
=28	=28	=28	=28	=28	=28	=28	=28
2r	.	1GMM	.	voice	.	58.962	G:maj9
8D	With	.	.	.	.	.	.
8D	or	.	.	.	.	.	.
8D	with-	.	.	.	.	.	.
[8E	-out	.	.	.	.	.	.
=29	=29	=29	=29	=29	=29	=29	=29
*>Letter>C2	*>Letter>C2	*>Letter>C2	*>Letter>C2	*>Letter>C2	*>Letter>C2	*>Letter>C2	*>Letter>C2
*>Label>Chorus	*>Label>Chorus	*>Label>Chorus	*>Label>Chorus	*>Label>Chorus	*>Label>Chorus	*>Label>Chorus	*>Label>Chorus
8E]	_	1DM	newline	voice	.	61.135	D:maj
[4.F#	you	.	.	.	.	.	.
2F#]	_	.	.	.	.	.	.
=30	=30	=30	=30	=30	=30	=30	=30
2r	.	1AM	.	voice	.	63.33	A:sus4(b7)
8E	With	.	.	.	.	.	.
4E	or	.	.	.	.	.	.
8F#	with-	.	.	.	.	.	.
=31	=31	=31	=31	=31	=31	=31	=31
4.E	-out	1Bmm	.	voice	.	65.524	B:min7
4D	_	.	.	.	.	.	.
[4.D	you	.	.	.	.	.	.
=32	=32	=32	=32	=32	=32	=32	=32
4D]	_	1GMM	.	voice	.	67.719	G:maj9
4r	.	.	.	.	.	.	.
2r	.	.	.	.	.	.	.
=33	=33	=33	=33	=33	=33	=33	=33
*>Letter>B2	*>Letter>B2	*>Letter>B2	*>Letter>B2	*>Letter>B2	*>Letter>B2	*>Letter>B2	*>Letter>B2
*>Label>Verse	*>Label>Verse	*>Label>Verse	*>Label>Verse	*>Label>Verse	*>Label>Verse	*>Label>Verse	*>Label>Verse
2r	.	1DM	newline	voice	.	69.913	D:maj
8r	.	.	.	.	.	.	.
8F#	Through	.	.	.	.	.	.
8F#	the	.	.	.	.	.	.
[8F#	storm	.	.	.	C	.	.
=34	=34	=34	=34	=34	=34	=34	=34
4F#]	_	1AM	.	voice	.	72.095	A:sus4(b7)
4E	we	.	.	.	.	.	.
8D	reach	.	.	.	.	.	.
4E	the	.	.	.	.	.	.
[8F#	shore	.	.	.	C	.	.
=35	=35	=35	=35	=35	=35	=35	=35
4F#]	_	1Bmm	.	voice	.	74.277	B:min7
8r	.	.	.	.	.	.	.
8AA	You	.	.	.	.	.	.
8F#	give	.	.	.	.	.	.
4G	it	.	.	.	.	.	.
[8F#	all	.	.	.	.	.	.
=36	=36	=36	=36	=36	=36	=36	=36
4F#]	_	1GMM	.	voice	.	76.459	G:maj9
8E	but	.	.	.	.	.	.
4D	I	.	.	.	.	.	.
4E	want	.	.	.	.	.	.
[8D	more	.	.	.	C	.	.
=37	=37	=37	=37	=37	=37	=37	=37
4D]	_	1DM	newline	voice	.	78.641	D:maj
4r	.	.	.	.	.	.	.
8r	.	.	.	.	.	.	.
8D	And	.	.	.	.	.	.
8D	I'm	.	.	.	.	.	.
[8A	wait-	.	.	.	.	.	.
=38	=38	=38	=38	=38	=38	=38	=38
2A]	_	1AM	.	voice	.	80.828	A:sus4(b7)
4r	.	.	.	.	.	.	.
8AA	-ing	.	.	.	.	.	.
[8BB	for	.	.	.	C	.	.
=39	=39	=39	=39	=39	=39	=39	=39
8BB]	_	1Bmm	.	voice	.	83.014	B:min7
4.F#	you	.	.	.	.	.	.
2r	.	.	.	.	.	.	.
=40	=40	=40	=40	=40	=40	=40	=40
2r	.	1GMM	.	voice	.	85.2	G:maj9
8D	With	.	.	.	.	.	.
8D	or	.	.	.	C	.	.
8D	with-	.	.	.	.	.	.
[8E	-out	.	.	.	.	.	.
=41	=41	=41	=41	=41	=41	=41	=41
*>Letter>C	*>Letter>C	*>Letter>C	*>Letter>C	*>Letter>C	*>Letter>C	*>Letter>C	*>Letter>C
*>Label>Chorus	*>Label>Chorus	*>Label>Chorus	*>Label>Chorus	*>Label>Chorus	*>Label>Chorus	*>Label>Chorus	*>Label>Chorus
8E]	_	1DM	newline	voice	.	87.387	D:maj
[4.F#	you	.	.	.	.	.	.
2F#]	_	.	.	.	.	.	.
=42	=42	=42	=42	=42	=42	=42	=42
2r	.	1AM	.	voice	.	89.562	A:sus4(b7)
8e	With	.	.	.	.	.	.
4e	or	.	.	.	.	.	.
[8a	with-	.	.	.	.	.	.
=43	=43	=43	=43	=43	=43	=43	=43
8a]	_	1Bmm	.	voice	.	91.737	B:min7
4g	-out	.	.	.	.	.	.
4f#	you	.	.	.	.	.	.
4e	ah	.	.	.	.	.	.
[8d	_	.	.	.	.	.	.
=44	=44	=44	=44	=44	=44	=44	=44
4d]	_	1GMM	.	voice	.	93.912	G:maj9
4r	.	.	.	.	.	.	.
8d	I	.	.	.	.	.	.
4e	can't	.	.	.	.	.	.
[8f#	live	.	.	.	.	.	.
=45	=45	=45	=45	=45	=45	=45	=45
2f#]	_	1DM	newline	voice	.	96.088	D:maj
2r	.	.	.	.	.	.	.
=46	=46	=46	=46	=46	=46	=46	=46
2r	.	1AM	.	voice	.	98.278	A:sus4(b7)
8e	with	.	.	.	.	.	.
4e	or	.	.	.	.	.	.
8f#	with-	.	.	.	.	.	.
=47	=47	=47	=47	=47	=47	=47	=47
4.e	-out	1Bmm	.	voice	.	100.468	B:min7
4d	_	.	.	.	.	.	.
4.d	you	.	.	.	.	.	.
=48	=48	=48	=48	=48	=48	=48	=48
1r	.	1GMM	.	voice	.	102.658	G:maj9
=49	=49	=49	=49	=49	=49	=49	=49
1r	.	1DM	newline	guitar	.	104.849	D:maj
=50	=50	=50	=50	=50	=50	=50	=50
1r	.	1AM	.	guitar	.	107.021	A:sus4(b7)
=51	=51	=51	=51	=51	=51	=51	=51
1r	.	1Bmm	.	guitar	.	109.193	B:min7
=52	=52	=52	=52	=52	=52	=52	=52
2r	.	1GMM	.	guitar	.	111.365	G:maj9
8r	.	.	.	.	.	.	.
8d	And	.	.	.	.	.	.
4d	you	.	.	.	.	.	.
=53	=53	=53	=53	=53	=53	=53	=53
*>Letter>D	*>Letter>D	*>Letter>D	*>Letter>D	*>Letter>D	*>Letter>D	*>Letter>D	*>Letter>D
*>Label>Bridge	*>Label>Bridge	*>Label>Bridge	*>Label>Bridge	*>Label>Bridge	*>Label>Bridge	*>Label>Bridge	*>Label>Bridge
4.e	give	1DM	newline	voice	.	113.537	D:maj
8d	your-	.	.	.	.	.	.
4d	-self	.	.	.	.	.	.
8B	a-	.	.	.	.	.	.
[8B	-way	.	.	.	B	.	.
=54	=54	=54	=54	=54	=54	=54	=54
8B]	_	1GMM	.	voice	.	115.71	G:maj9
4.A	_	.	.	.	.	.	.
8r	.	.	.	.	.	.	.
8d	And	.	.	.	.	.	.
8d	you	.	.	.	.	.	.
[8e	give	.	.	.	.	.	.
=55	=55	=55	=55	=55	=55	=55	=55
4.e]	_	1DM	.	voice	.	117.884	D:maj
8d	your-	.	.	.	.	.	.
4d	-self	.	.	.	.	.	.
8B	a-	.	.	.	.	.	.
[8B	-way	.	.	.	.	.	.
=56	=56	=56	=56	=56	=56	=56	=56
8B]	_	1GMM	.	voice	.	120.057	G:maj9
4.A	_	.	.	.	.	.	.
8r	.	.	.	.	.	.	.
8d	And	.	.	.	.	.	.
8d	you	.	.	.	.	.	.
[8e	give	.	.	.	.	.	.
=57	=57	=57	=57	=57	=57	=57	=57
2e]	_	1DM	newline	voice	.	122.231	D:maj
8r	.	.	.	.	.	.	.
8d	And	.	.	.	.	.	.
8d	you	.	.	.	.	.	.
[8e	give	.	.	.	.	.	.
=58	=58	=58	=58	=58	=58	=58	=58
2e]	_	1GMM	.	voice	.	124.417	G:maj9
8r	.	.	.	.	.	.	.
8d	And	.	.	.	.	.	.
4d	you	.	.	.	.	.	.
=59	=59	=59	=59	=59	=59	=59	=59
4.e	give	1Bmm	.	voice	.	126.603	B:min7
8d	your-	.	.	.	.	.	.
4d	-self	.	.	.	.	.	.
8B	a-	.	.	.	.	.	.
[8B	-way	.	.	.	.	.	.
=60	=60	=60	=60	=60	=60	=60	=60
8B]	_	1GMM	.	voice	.	128.79	G:maj9
[4.A	_	.	.	.	.	.	.
4A]	_	.	.	.	.	.	.
4r	.	.	.	.	.	.	.
=61	=61	=61	=61	=61	=61	=61	=61
4.r	.	1DM	newline	voice	.	130.976	D:maj
8AA	My	.	.	.	.	.	.
8F#	hands	.	.	.	.	.	.
4F#	are	.	.	.	.	.	.
[8E	tied	.	.	.	.	.	.
=62	=62	=62	=62	=62	=62	=62	=62
4E]	_	1GMM	.	voice	.	133.16	G:maj9
4r	.	.	.	.	.	.	.
2r	.	.	.	.	.	.	.
=63	=63	=63	=63	=63	=63	=63	=63
4.r	.	1DM	.	voice	.	135.344	D:maj
8AA	My	.	.	.	.	.	.
8F#	bo-	.	.	.	.	.	.
4F#	-dy	.	.	.	.	.	.
[8E	bruised	.	.	.	D	.	.
=64	=64	=64	=64	=64	=64	=64	=64
4E]	_	1GMM	.	voice	.	137.529	G:maj9
8F#	she	.	.	.	.	.	.
4E	got	.	.	.	.	.	.
4D	me	.	.	.	.	.	.
[8D	with	.	.	.	.	.	.
=65	=65	=65	=65	=65	=65	=65	=65
4D]	_	1DM	newline	voice	.	139.713	D:maj
4r	.	.	.	.	.	.	.
8A	No-	.	.	.	.	.	.
8A	-thing	.	.	.	.	.	.
8A	to	.	.	.	.	.	.
8B	win	.	.	.	.	.	.
=66	=66	=66	=66	=66	=66	=66	=66
4.A	_	1GMM	.	voice	.	141.908	G:maj9
4.A	and	.	.	.	.	.	.
4r	.	.	.	.	.	.	.
=67	=67	=67	=67	=67	=67	=67	=67
8B	No-	1Bmm	.	voice	.	144.104	B:min7
4d	-thing	.	.	.	.	.	.
4.d	left	.	.	.	.	.	.
8d	to	.	.	.	.	.	.
8e	lose	.	.	.	D	.	.
=68	=68	=68	=68	=68	=68	=68	=68
2d	_	1GMM	.	voice	.	146.299	G:maj9
8r	.	.	.	.	.	.	.
8d	And	.	.	.	.	.	.
4d	you	.	.	.	.	.	.
=69	=69	=69	=69	=69	=69	=69	=69
4.e	give	1DM	newline	voice	.	148.494	D:maj
8d	your-	.	.	.	.	.	.
4d	-self	.	.	.	.	.	.
8B	a-	.	.	.	.	.	.
[8B	-way	.	.	.	B	.	.
=70	=70	=70	=70	=70	=70	=70	=70
8B]	_	1GMM	.	voice	.	150.672	G:maj9
4.A	_	.	.	.	.	.	.
8r	.	.	.	.	.	.	.
8d	And	.	.	.	.	.	.
8d	you	.	.	.	.	.	.
[8e	give	.	.	.	.	.	.
=71	=71	=71	=71	=71	=71	=71	=71
4.e]	_	1DM	.	voice	.	152.849	D:maj
8d	your-	.	.	.	.	.	.
4d	-self	.	.	.	.	.	.
8B	a-	.	.	.	.	.	.
[8B	-way	.	.	.	.	.	.
=72	=72	=72	=72	=72	=72	=72	=72
8B]	_	1GMM	.	voice	.	155.026	G:maj9
4.A	_	.	.	.	.	.	.
8r	.	.	.	.	.	.	.
8d	And	.	.	.	.	.	.
8d	you	.	.	.	.	.	.
[8e	give	.	.	.	.	.	.
=73	=73	=73	=73	=73	=73	=73	=73
2e]	_	1DM	newline	voice	.	157.204	D:maj
8r	.	.	.	.	.	.	.
8d	And	.	.	.	.	.	.
8d	you	.	.	.	.	.	.
[8e	give	.	.	.	.	.	.
=74	=74	=74	=74	=74	=74	=74	=74
2e]	_	1GMM	.	voice	.	159.394	G:maj9
8r	.	.	.	.	.	.	.
8d	And	.	.	.	.	.	.
4d	you	.	.	.	.	.	.
=75	=75	=75	=75	=75	=75	=75	=75
4.e	give	1Bmm	.	voice	.	161.584	B:min7
8d	your-	.	.	.	.	.	.
4d	-self	.	.	.	.	.	.
8B	a-	.	.	.	.	.	.
[8B	-way	.	.	.	.	.	.
=76	=76	=76	=76	=76	=76	=76	=76
8B]	_	1GMM	.	voice	.	163.773	G:maj9
4A	_	.	.	.	.	.	.
8r	.	.	.	.	.	.	.
8d	With	.	.	.	.	.	.
8d	or	.	.	.	.	.	.
8d	with-	.	.	.	.	.	.
[8e	-out	.	.	.	.	.	.
=77	=77	=77	=77	=77	=77	=77	=77
*>Letter>C	*>Letter>C	*>Letter>C	*>Letter>C	*>Letter>C	*>Letter>C	*>Letter>C	*>Letter>C
*>Label>Chorus	*>Label>Chorus	*>Label>Chorus	*>Label>Chorus	*>Label>Chorus	*>Label>Chorus	*>Label>Chorus	*>Label>Chorus
8e]	_	1DM	newline	voice	.	165.963	D:maj
[4.f#	you	.	.	.	.	.	.
2f#]	_	.	.	.	.	.	.
=78	=78	=78	=78	=78	=78	=78	=78
2r	.	1AM	.	voice	.	168.142	A:sus4(b7)
8e	With	.	.	.	.	.	.
4e	or	.	.	.	.	.	.
[8a	with-	.	.	.	.	.	.
=79	=79	=79	=79	=79	=79	=79	=79
8a]	_	1Bmm	.	voice	.	170.322	B:min7
4g	-out	.	.	.	.	.	.
4f#	you	.	.	.	.	.	.
4e	Oh	.	.	.	.	.	.
[8d	_	.	.	.	.	.	.
=80	=80	=80	=80	=80	=80	=80	=80
4d]	_	1GMM	.	voice	.	172.501	G:maj9
4r	.	.	.	.	.	.	.
8d	I	.	.	.	.	.	.
4e	can't	.	.	.	.	.	.
[8f#	live	.	.	.	.	.	.
=81	=81	=81	=81	=81	=81	=81	=81
1f#]	_	1DM	newline	voice	.	174.68	D:maj
=82	=82	=82	=82	=82	=82	=82	=82
2r	.	1AM	.	voice	.	176.852	A:sus4(b7)
8e	with	.	.	.	.	.	.
4e	or	.	.	.	.	.	.
8f#	with-	.	.	.	.	.	.
=83	=83	=83	=83	=83	=83	=83	=83
4.e	-out	1Bmm	.	voice	.	179.024	B:min7
4d	_	.	.	.	.	.	.
[4.d	you	.	.	.	.	.	.
=84	=84	=84	=84	=84	=84	=84	=84
2d]	_	1GMM	.	voice	.	181.196	G:maj9
2r	.	.	.	.	.	.	.
=85	=85	=85	=85	=85	=85	=85	=85
4.a	Oh	1DM	newline	voice	.	183.368	D:maj
4.g	_	.	.	.	.	.	.
4f#	_	.	.	.	.	.	.
=86	=86	=86	=86	=86	=86	=86	=86
2.e	_	1AM	.	voice	.	185.561	A:sus4(b7)
4r	.	.	.	.	.	.	.
=87	=87	=87	=87	=87	=87	=87	=87
4.a	Oh	1Bmm	.	voice	.	187.754	B:min7
4.g	_	.	.	.	.	.	.
[4f#	_	.	.	.	.	.	.
=88	=88	=88	=88	=88	=88	=88	=88
4f#]	_	1GMM	.	voice	.	189.947	G:maj9
2d	_	.	.	.	.	.	.
4r	.	.	.	.	.	.	.
=89	=89	=89	=89	=89	=89	=89	=89
4.a	Oh	1DM	newline	voice	.	192.14	D:maj
4.g	_	.	.	.	.	.	.
4f#	_	.	.	.	.	.	.
=90	=90	=90	=90	=90	=90	=90	=90
[2e	_	1AM	.	voice	.	194.319	A:sus4(b7)
8e]	_	.	.	.	.	.	.
4e	_	.	.	.	.	.	.
[8e	_	.	.	.	.	.	.
=91	=91	=91	=91	=91	=91	=91	=91
4.e]	_	1Bmm	.	voice	.	196.498	B:min7
[8d	_	.	.	.	.	.	.
2d_	_	.	.	.	.	.	.
=92	=92	=92	=92	=92	=92	=92	=92
4d]	_	1GMM	.	voice	.	198.677	G:maj9
4r	.	.	.	.	.	.	.
8d	With	.	.	.	.	.	.
8d	or	.	.	.	.	.	.
8d	with-	.	.	.	.	.	.
[8e	-out	.	.	.	.	.	.
=93	=93	=93	=93	=93	=93	=93	=93
*>Letter>C	*>Letter>C	*>Letter>C	*>Letter>C	*>Letter>C	*>Letter>C	*>Letter>C	*>Letter>C
*>Label>Chorus	*>Label>Chorus	*>Label>Chorus	*>Label>Chorus	*>Label>Chorus	*>Label>Chorus	*>Label>Chorus	*>Label>Chorus
8e]	_	1DM	newline	voice	.	200.856	D:maj
[4.f#	you	.	.	.	.	.	.
2f#]	_	.	.	.	.	.	.
=94	=94	=94	=94	=94	=94	=94	=94
2r	.	1AM	.	voice	.	203.038	A:sus4(b7)
8e	With	.	.	.	.	.	.
4e	or	.	.	.	.	.	.
[8a	with-	.	.	.	.	.	.
=95	=95	=95	=95	=95	=95	=95	=95
8a]	_	1Bmm	.	voice	.	205.22	B:min7
4g	-out	.	.	.	.	.	.
4f#	you	.	.	.	.	.	.
4e	Oh	.	.	.	.	.	.
[8d	_	.	.	.	.	.	.
=96	=96	=96	=96	=96	=96	=96	=96
4d]	_	1GMM	.	voice	.	207.402	G:maj9
4r	.	.	.	.	.	.	.
8d	I	.	.	.	.	.	.
4e	can't	.	.	.	.	.	.
[8f#	live	.	.	.	.	.	.
=97	=97	=97	=97	=97	=97	=97	=97
1f#_	_	1DM	newline	voice	.	209.584	D:maj
=98	=98	=98	=98	=98	=98	=98	=98
4f#]	_	1AM	.	voice	.	211.761	A:sus4(b7)
4r	.	.	.	.	.	.	.
8e	with	.	.	.	.	.	.
4e	or	.	.	.	.	.	.
8f#	with-	.	.	.	.	.	.
=99	=99	=99	=99	=99	=99	=99	=99
4.e	-out	1Bmm	.	voice	.	213.937	B:min7
4d	_	.	.	.	.	.	.
[4.d	you	.	.	.	.	.	.
=100	=100	=100	=100	=100	=100	=100	=100
4d]	_	1GMM	.	voice	.	216.113	G:maj9
4r	.	.	.	.	.	.	.
8e	With	.	.	.	.	.	.
4e	or	.	.	.	.	.	.
8f#	with-	.	.	.	.	.	.
=101	=101	=101	=101	=101	=101	=101	=101
*>Letter>A	*>Letter>A	*>Letter>A	*>Letter>A	*>Letter>A	*>Letter>A	*>Letter>A	*>Letter>A
*>Label>Interlude	*>Label>Interlude	*>Label>Interlude	*>Label>Interlude	*>Label>Interlude	*>Label>Interlude	*>Label>Interlude	*>Label>Interlude
4.e	-out	1DM	newline	synthesizer	.	218.289	D:maj
[8d	you	.	.	.	.	.	.
2d]	_	.	.	.	.	.	.
=102	=102	=102	=102	=102	=102	=102	=102
1r	.	1DM	.	synthesizer	.	220.482	D:maj
=103	=103	=103	=103	=103	=103	=103	=103
1r	.	1DM	.	synthesizer	.	222.675	D:maj
=104	=104	=104	=104	=104	=104	=104	=104
1r	.	1DM	.	synthesizer	.	224.868	D:maj
=105	=105	=105	=105	=105	=105	=105	=105
[1d	Ooh	1DM	newline	synthesizer	.	227.061	D:maj
=106	=106	=106	=106	=106	=106	=106	=106
2d]	_	1DM	.	synthesizer	.	229.239	D:maj
4B	Ooh	.	.	.	.	.	.
4A	_	.	.	.	.	.	.
=107	=107	=107	=107	=107	=107	=107	=107
4.B	ooh	1DM	.	synthesizer	.	231.418	D:maj
8A	_	.	.	.	.	.	.
[2A	_	.	.	.	.	.	.
=108	=108	=108	=108	=108	=108	=108	=108
2A]	_	1DM	.	synthesizer	.	233.596	D:maj
2r	.	.	.	.	.	.	.
=109	=109	=109	=109	=109	=109	=109	=109
8B	Hoo	1DM	newline	synthesizer	.	235.775	D:maj
[8d	_	.	.	.	.	.	.
2.d_	_	.	.	.	.	.	.
=110	=110	=110	=110	=110	=110	=110	=110
2d]	_	1DM	.	synthesizer	.	237.971	D:maj
4B	Ooh	.	.	.	.	.	.
8A	_	.	.	.	.	.	.
[8B	Ooh	.	.	.	.	.	.
=111	=111	=111	=111	=111	=111	=111	=111
4.B]	_	1DM	.	synthesizer	.	240.167	D:maj
8A	_	.	.	.	.	.	.
[2A	_	.	.	.	.	.	.
=112	=112	=112	=112	=112	=112	=112	=112
2A]	_	1DM	.	synthesizer	.	242.364	D:maj
2r	.	.	.	.	.	.	.
=113	=113	=113	=113	=113	=113	=113	=113
*>Letter>C	*>Letter>C	*>Letter>C	*>Letter>C	*>Letter>C	*>Letter>C	*>Letter>C	*>Letter>C
*>Label>Solo	*>Label>Solo	*>Label>Solo	*>Label>Solo	*>Label>Solo	*>Label>Solo	*>Label>Solo	*>Label>Solo
1r	.	1DM	newline	guitar	.	244.56	D:maj
=114	=114	=114	=114	=114	=114	=114	=114
1r	.	1AM	.	guitar	.	246.741	A:sus4(b7)
=115	=115	=115	=115	=115	=115	=115	=115
1r	.	1Bmm	.	guitar	.	248.922	B:min7
=116	=116	=116	=116	=116	=116	=116	=116
1r	.	1GMM	.	guitar	.	251.103	G:maj9
=117	=117	=117	=117	=117	=117	=117	=117
1r	.	1DM	newline	guitar	.	253.284	D:maj
=118	=118	=118	=118	=118	=118	=118	=118
1r	.	1AM	.	guitar	.	255.457	A:sus4(b7)
=119	=119	=119	=119	=119	=119	=119	=119
1r	.	1Bmm	.	guitar	.	257.63	B:min7
=120	=120	=120	=120	=120	=120	=120	=120
1r	.	1GMM	.	guitar	.	259.803	G:maj9
=121	=121	=121	=121	=121	=121	=121	=121
1r	.	1DM	newline	guitar	.	261.976	D:maj
=122	=122	=122	=122	=122	=122	=122	=122
1r	.	1AM	.	guitar	.	264.165	A:sus4(b7)
=123	=123	=123	=123	=123	=123	=123	=123
1r	.	1Bmm	.	guitar	.	266.354	B:min7
=124	=124	=124	=124	=124	=124	=124	=124
1r	.	1GMM	.	guitar	.	268.542	G:maj9
=125	=125	=125	=125	=125	=125	=125	=125
*>Label>>Fadeout	*>Label>>Fadeout	*>Label>>Fadeout	*>Label>>Fadeout	*>Label>>Fadeout	*>Label>>Fadeout	*>Label>>Fadeout	*>Label>>Fadeout
1r	.	1DM	newline	guitar	.	270.731	D:maj
=126	=126	=126	=126	=126	=126	=126	=126
1r	.	1AM	.	guitar	.	272.903	A:sus4(b7)
=127	=127	=127	=127	=127	=127	=127	=127
1r	.	1Bmm	.	guitar	.	275.076	B:min7
=128	=128	=128	=128	=128	=128	=128	=128
1r	.	1GMM	.	guitar	.	277.248	G:maj9
=129	=129	=129	=129	=129	=129	=129	=129
1r	.	1DM	newline	guitar	.	279.42	D:maj
=130	=130	=130	=130	=130	=130	=130	=130
1r	.	1AM	.	guitar	.	281.608	A:sus4(b7)
=131	=131	=131	=131	=131	=131	=131	=131
1r	.	1Bmm	.	guitar	.	283.796	B:min7
=132	=132	=132	=132	=132	=132	=132	=132
1r	.	1GMM	.	guitar	.	285.984	G:maj9
=133	=133	=133	=133	=133	=133	=133	=133
1r	.	1DM	newline	guitar	.	288.172	D:maj
=134	=134	=134	=134	=134	=134	=134	=134
1r	.	1AM	.	guitar	.	289.878	A:sus4(b7)
=135	=135	=135	=135	=135	=135	=135	=135
1r	.	1Bmm	.	guitar	.	291.585	B:min7
r;	.	1r;	.	r	.	293.291	N.C.
r;	.	1r;	.	r	.	296.176	N.C.
*-	*-	*-	*-	*-	*-	*-	*-
!!!BillboardChartDate: 1987/06/27
!!!BillboardPeak: 1
!!!BillboardWeeksOnChart: 18
!!!COC: U2
!!!ENC: Nathaniel Condit-Schultz
!!!EST: Awating manual error checking and editing.
!!!OTL: With Or Without You
!!!RDF**chordsym: original McGill chord annotation + (implied pitch class set, with bass pitch in first position)
!!!RDF**harmony: **recip + pitch class of root + harmonic quality
!!!RDF**leadinstrument: original McGill primary instrumentation annotation
!!!RDF**phrase: newline = linebreak in original McGill transcription
!!!RDF**timestamp: McGill audio timestamp in seconds
!!!RDT: 2017/01/12/
!!!SampleActualRank: 38
!!!SampleID#: 0681
!!!SampleTargetRank: 38
